X:130
%%pagewidth 9in
%%vocalfont Baskerville10Pro 14
T:Upon a Summer's-Day
M:6/8
L:1/8
K:C
%%score 1 2
V:1 clef-treble
V:2 clef-bass octave=-1
V:1
G|[CG]2G E2C|(G2>G2)AB|!<(!c2Bc2d&F6!<)!|!>(![Ee]3-[Ee]2E!>)!|"^pp"[CE]2ED2C|
w:Up-on a time I chanc'd* To* walk a-long a green,* Where pretty* lasses*
V:2
z|[CE]6-|[CE]3C3|A2GA2B&C6|c6&(C3C3)|A,6|
V:1
([DEB]3[CEc]3)|[DAd]2[CE] [B,D]2C|(C3C2)||d|[DBd]2d B2G|d3-d2 B&x3F3|
w:danced In strife, to choose a Queen.* Some home-ly dress'd, some handsome,* Some
V:2
^G,3A,3|F,3[G,F]2[CE]|[CE]3-[CE]2||z|G,6-|G,3G3|
V:1
!<(!c2Bc2d&F6!<)!|"^f" !>(![Ee]3-[Ee]2E!>)!|"^pp"[CE]2E D2C|([DEB]3[CEc]3)|[Cd]2E [B,D]2C|C3-C2||
w:pretty* and some gay,* But who excell'd* in dancing, Must be the Queen of the May.
V:2
A2GA2B&C6|c6&(C3B,3)|A,6|^G,3A,3|{D,/}^F3{G,/}=F2[CE]|[CE]3-[CE]2||

